X: 41050
T: Trip To Miriam's, The
R: reel
M: 4/4
K: Dmajor
|:dAA/A/A defd|eBB/B/B efge|f3a bfaf|d2fd edBc|
dAA/A/A defd|eBB/B/B efge|f3a bfaf|edef d4:|
|:f3a bfaf|d2fd edBd|AddB ddcd|dBdd cdeg|
f3a bfaf|d2fd edBd|A3B defb|afefd4:|

